!! 00000] TT[WS
!!!OTL: Tiao cai
!!!ARE: Asia, China, Shanxi LÅliang
!! Ethnic Group: Han
!! WII, 142 (1)
!!!SCT: J0617
!!!YEM: Copyright 1995, estate of Helmut Schaffrath.
**kern
*ICvox
*Ivox
*M2/4
*k[b-]
*F:
{8f
8g
8dd
8cc
=1
4g
8b-
8cc
=2
8g
8f
8c
8f
=3
4f
4g}
=4
{4cc
16dd
16ff
16dd
16cc
=5
4b-
8g
8ff
=6
8dd
8cc
8b-
8g
=7
2f}
==
!!!AGN: Xiaodiao. Maimai, Qingge
!!!ONB: ESAC (Essen Associative Code) Database: CHINA
!!!AMT: simple duple
!!!AIN: vox
!!!EED: Helmut Schaffrath
!!!EEV: 1.0
*-
